X: 10059
T: LISA'S HORNPIPE
C: Bob McQuillen 15 Nov 93
B: Bob's Note Book 10 #59
%R: hornpipe, reel
Z: 2020 John Chambers <jc:trillian.mit.edu>
M: C
L: 1/8
K: Am
cd \
| e2ec dcAc | e2ce d2cd | egec dcAc | edcA G2EG |\
| Acec dcAG | Aceg e2eg | agec dcde | c2A2 A2  :|
|: cd \
| egag ecAG | Aceg e2cd | egag ecAc | GAcA B2cB |\
| ABcA BcdB | cdec d2cd | egag ecAG | E2A2 A2  :|
%%begintext align
%% Lisa Greenleaf lives
%% in Bolton, MA, and she's a great caller and such fun to work
%% with that I came to the conclusion that the only thing she
%% lacked was one of these damn tunes. Well! here it is, and
%% I'm glad _that's_ all taken care of! Seriously, Best wishes always
%% to you, Lisa. I sure hope you like your tune -
%%endtext

%%sep 1 1 500

%%sep 1 1 500

